X: 35756
T: Sallbacher Masur
R: mazurka
M: 3/4
K: Gmajor
|:(3cBA|G2 B>c d2|g2 B>c d2|c>d e2 d>c|B>g d>B (3cBA|
G2 (3ABc (3ded|(3gag B>c (3ded|c>B A>d f>a|g2 G2:|
K: DMaj
|:(3EFG|A>F A>D (3FGA|f>e d2 A>d|c>B A2 E>G|F>G A2 (3EFG|
A2 A>d F>d|f/g/f/e/ d>A d>A|c>B A>g f>e|d2 D2:|

